Newaita-dark/.DP/22/whatsapp-msg.svg

<svg xmlns="http://www.w3.org/2000/svg" xmlns:xlink="http://www.w3.org/1999/xlink" width="22px" height="22px" viewBox="0 0 22 22" version="1.1">
<g id="surface1">
<path style=" stroke:none;fill-rule:nonzero;fill:rgb(93.333334%,93.333334%,93.333334%);fill-opacity:1;" d="M 10.914062 2.898438 C 5.875 2.898438 1.820312 6.550781 1.820312 11.085938 C 1.820312 13.386719 2.863281 15.464844 4.554688 16.949219 L 4.554688 18.359375 C 4.554688 19.121094 5.4375 19.542969 6.03125 19.058594 L 6.828125 18.410156 C 8.054688 18.960938 9.445312 19.273438 10.914062 19.273438 C 15.953125 19.273438 20.011719 15.621094 20.011719 11.085938 C 20.011719 10.921875 20.003906 10.757812 19.996094 10.59375 C 19.738281 10.765625 19.425781 10.863281 19.101562 10.863281 L 14.554688 10.863281 C 13.703125 10.863281 12.957031 10.1875 12.957031 9.320312 L 12.957031 9.214844 C 12.957031 8.652344 13.273438 8.171875 13.722656 7.902344 C 13.273438 7.632812 12.957031 7.152344 12.957031 6.59375 L 12.957031 6.488281 C 12.957031 5.925781 13.273438 5.445312 13.722656 5.175781 C 13.273438 4.90625 12.957031 4.425781 12.957031 3.863281 L 12.957031 3.757812 C 12.957031 3.535156 13.007812 3.324219 13.09375 3.136719 C 12.398438 2.984375 11.664062 2.898438 10.914062 2.898438 Z M 14.554688 3.585938 C 14.394531 3.585938 14.328125 3.671875 14.328125 3.757812 L 14.328125 3.863281 C 14.328125 3.945312 14.394531 4.035156 14.554688 4.035156 L 15.546875 4.035156 C 15.234375 3.867188 14.910156 3.71875 14.578125 3.585938 Z M 9.285156 6.238281 C 9.453125 6.242188 9.617188 6.332031 9.710938 6.488281 L 10.964844 8.664062 C 11.105469 8.90625 11.023438 9.210938 10.78125 9.351562 L 10.347656 9.601562 C 10.105469 9.742188 9.796875 9.660156 9.660156 9.417969 L 8.402344 7.242188 C 8.265625 7.003906 8.347656 6.695312 8.589844 6.554688 L 9.023438 6.304688 C 9.105469 6.257812 9.195312 6.234375 9.285156 6.238281 Z M 14.554688 6.316406 C 14.394531 6.316406 14.328125 6.402344 14.328125 6.488281 L 14.328125 6.59375 C 14.328125 6.675781 14.394531 6.761719 14.554688 6.761719 L 18.648438 6.761719 C 18.542969 6.609375 18.433594 6.460938 18.316406 6.316406 Z M 8.1875 7.367188 L 9.441406 9.542969 C 8.789062 9.921875 8.980469 11.257812 9.484375 12.128906 C 9.988281 13 11.050781 13.835938 11.703125 13.460938 L 12.957031 15.636719 C 11 16.765625 9.117188 13.503906 8.617188 12.632812 C 8.113281 11.761719 6.230469 8.5 8.1875 7.367188 Z M 14.554688 9.046875 C 14.394531 9.046875 14.328125 9.132812 14.328125 9.214844 L 14.328125 9.320312 C 14.328125 9.40625 14.394531 9.492188 14.554688 9.492188 L 19.101562 9.492188 C 19.257812 9.492188 19.324219 9.40625 19.324219 9.320312 L 19.324219 9.214844 C 19.324219 9.132812 19.257812 9.046875 19.101562 9.046875 Z M 12.800781 12.328125 C 12.972656 12.332031 13.132812 12.421875 13.226562 12.582031 L 14.480469 14.757812 C 14.621094 14.996094 14.539062 15.300781 14.296875 15.441406 L 13.863281 15.691406 C 13.621094 15.832031 13.316406 15.75 13.175781 15.511719 L 11.921875 13.335938 C 11.78125 13.09375 11.863281 12.785156 12.105469 12.648438 L 12.539062 12.398438 C 12.621094 12.347656 12.714844 12.328125 12.800781 12.328125 Z M 12.800781 12.328125 "/>
<path style=" stroke:none;fill-rule:nonzero;fill:rgb(13.725491%,65.098041%,60.000002%);fill-opacity:1;" d="M 14.554688 2.898438 C 14.050781 2.898438 13.644531 3.28125 13.644531 3.757812 L 13.644531 3.863281 C 13.644531 4.339844 14.050781 4.71875 14.554688 4.71875 L 19.101562 4.71875 C 19.605469 4.71875 20.011719 4.339844 20.011719 3.863281 L 20.011719 3.757812 C 20.011719 3.28125 19.605469 2.898438 19.101562 2.898438 Z M 14.554688 5.628906 C 14.050781 5.628906 13.644531 6.011719 13.644531 6.488281 L 13.644531 6.59375 C 13.644531 7.066406 14.050781 7.449219 14.554688 7.449219 L 19.101562 7.449219 C 19.605469 7.449219 20.011719 7.066406 20.011719 6.59375 L 20.011719 6.488281 C 20.011719 6.011719 19.605469 5.628906 19.101562 5.628906 Z M 14.554688 8.359375 C 14.050781 8.359375 13.644531 8.742188 13.644531 9.214844 L 13.644531 9.320312 C 13.644531 9.796875 14.050781 10.179688 14.554688 10.179688 L 19.101562 10.179688 C 19.605469 10.179688 20.011719 9.796875 20.011719 9.320312 L 20.011719 9.214844 C 20.011719 8.742188 19.605469 8.359375 19.101562 8.359375 Z M 14.554688 8.359375 "/>
</g>
</svg>

<svg xmlns="http://www.w3.org/2000/svg" width="22" height="22"><path d="M10.914 2.902c-5.039 0-9.094 3.649-9.094 8.184 0 2.305 1.043 4.375 2.73 5.863v1.41a.907.907 0 0 0 1.481.7l.797-.653a9.916 9.916 0 0 0 4.086.867c5.04 0 9.098-3.652 9.098-8.187 0-.164-.008-.328-.016-.492-.262.172-.57.27-.894.27h-4.547c-.852 0-1.598-.677-1.598-1.544v-.105c0-.563.313-1.043.766-1.313a1.527 1.527 0 0 1-.766-1.308v-.11c0-.558.313-1.039.766-1.308a1.529 1.529 0 0 1-.766-1.313v-.105c0-.223.05-.434.137-.621a9.94 9.94 0 0 0-2.18-.235zm3.64.684c-.16 0-.222.09-.222.172v.105c0 .082.063.172.223.172h.992a9.11 9.11 0 0 0-.969-.45zM9.286 6.238a.512.512 0 0 1 .426.25l1.254 2.176a.5.5 0 0 1-.184.688l-.433.25a.5.5 0 0 1-.688-.184L8.402 7.242a.503.503 0 0 1 .184-.683l.437-.254a.485.485 0 0 1 .262-.067zm5.27.078c-.16 0-.223.086-.223.168v.11c0 .082.063.168.223.168h4.093a7.315 7.315 0 0 0-.332-.446zM8.188 7.367L9.44 9.543c-.652.379-.457 1.715.043 2.586.504.871 1.567 1.707 2.22 1.332l1.253 2.176c-1.957 1.129-3.84-2.133-4.344-3.004-.5-.871-2.386-4.133-.425-5.266zm6.367 1.676c-.16 0-.223.09-.223.172v.105c0 .082.063.172.223.172h4.547c.156 0 .222-.09.222-.172v-.105c0-.082-.066-.172-.222-.172zM12.8 12.328a.503.503 0 0 1 .426.254l1.253 2.172a.5.5 0 0 1-.183.687l-.434.25a.5.5 0 0 1-.687-.183l-1.254-2.172a.5.5 0 0 1 .183-.688l.434-.25a.489.489 0 0 1 .262-.07zm0 0" fill="#bdbdbd"/><path d="M14.555 2.902c-.504 0-.91.38-.91.856v.105c0 .477.406.856.91.856h4.547c.503 0 .91-.38.91-.856v-.105c0-.477-.407-.856-.91-.856zm0 2.727c-.504 0-.91.383-.91.855v.11c0 .472.406.855.91.855h4.547c.503 0 .91-.383.91-.855v-.11c0-.472-.407-.855-.91-.855zm0 2.73c-.504 0-.91.38-.91.856v.105c0 .477.406.856.91.856h4.547c.503 0 .91-.38.91-.856v-.105c0-.477-.407-.856-.91-.856zm0 0" fill="#26a69a"/></svg>
